tools/download-figma-icons/icons/outlined-large/light-bulb.svg

<svg width="65" height="64" viewBox="0 0 65 64" fill="none" xmlns="http://www.w3.org/2000/svg">
<path fill-rule="evenodd" clip-rule="evenodd" d="M54.5741 40.502C48.8631 46.212 42.8271 46.993 34.9301 47.473C30.7121 47.707 26.7251 47.928 24.1141 50.54L23.3571 51.297L19.0941 47.032L36.8651 29.26L41.4271 29.767L42.0121 35.045C42.0981 35.812 42.7481 36.379 43.5021 36.379C43.5571 36.379 43.6131 36.376 43.6701 36.37C44.4931 36.278 45.0861 35.537 44.9951 34.713L44.2761 28.242C44.1981 27.545 43.6481 26.995 42.9511 26.917L37.6741 26.331L37.0881 21.053C37.0101 20.356 36.4601 19.806 35.7621 19.728L29.2911 19.009C28.4641 18.925 27.7251 19.511 27.6341 20.334C27.5431 21.158 28.1361 21.899 28.9591 21.991L34.2381 22.577L34.7441 27.139L16.9721 44.911L12.7051 40.644L13.4631 39.886C16.0451 37.304 16.2811 33.497 16.5571 29.058C17.0371 21.153 17.8181 15.115 23.5271 9.405C27.6691 5.274 33.1731 3 39.0261 3H39.0441C44.9051 3.005 50.4191 5.288 54.5711 9.43C58.7171 13.587 61.0011 19.108 61.0031 24.976C61.0031 30.847 58.7201 36.36 54.5741 40.502ZM12.2331 61.002H12.2301C11.3131 61.001 10.4501 60.644 9.80206 59.995L4.00706 54.201C2.66806 52.861 2.66506 50.684 4.00206 49.347L5.27706 48.071L15.9301 58.724L14.6551 60C14.0091 60.647 13.1481 61.002 12.2331 61.002ZM15.9011 48.082C15.9051 48.086 15.9061 48.092 15.9101 48.096C15.9141 48.099 15.9191 48.101 15.9231 48.104L21.2361 53.418L18.0521 56.603L7.39806 45.949L10.5841 42.765L15.9011 48.082ZM56.6921 7.309L56.6901 7.307C51.9721 2.6 45.7071 0.005 39.0461 0H39.0261C32.3731 0 26.1161 2.586 21.4071 7.283C14.9641 13.728 14.0661 20.584 13.5611 28.903C13.3151 32.86 13.1211 35.985 11.3421 37.765L9.52606 39.58C9.52505 39.581 9.52306 39.581 9.52306 39.582C9.52206 39.583 9.52106 39.584 9.52106 39.585L1.88106 47.225C-0.624944 49.731 -0.622944 53.813 1.88606 56.322L7.67906 62.116C8.93506 63.372 10.5851 64 12.2331 64C13.8791 64 15.5241 63.373 16.7761 62.121L26.2351 52.661C28.0361 50.86 31.3081 50.68 35.1041 50.469C43.3961 49.965 50.2521 49.067 56.6951 42.624C61.4071 37.916 64.0031 31.648 64.0031 24.976C64.0011 18.307 61.4041 12.032 56.6921 7.309Z" fill="black"/>
</svg>

<svg width="65" height="64" viewBox="0 0 65 64" fill="none" xmlns="http://www.w3.org/2000/svg"><path fill-rule="evenodd" clip-rule="evenodd" d="M54.574 40.502c-5.71 5.71-11.747 6.491-19.644 6.971-4.218.234-8.205.455-10.816 3.067l-.757.757-4.263-4.265L36.865 29.26l4.562.507.585 5.278a1.502 1.502 0 0 0 2.983-.332l-.719-6.471a1.501 1.501 0 0 0-1.325-1.325l-5.277-.586-.586-5.278a1.501 1.501 0 0 0-1.326-1.325l-6.47-.719a1.504 1.504 0 0 0-1.658 1.325 1.5 1.5 0 0 0 1.325 1.657l5.28.586.505 4.562-17.772 17.772-4.267-4.267.758-.758c2.582-2.582 2.818-6.389 3.094-10.828.48-7.905 1.261-13.943 6.97-19.653A21.805 21.805 0 0 1 39.027 3h.017a21.872 21.872 0 0 1 15.527 6.43 21.885 21.885 0 0 1 6.432 15.546c0 5.871-2.283 11.384-6.429 15.526Zm-42.34 20.5h-.004a3.414 3.414 0 0 1-2.428-1.007l-5.795-5.794a3.437 3.437 0 0 1-.005-4.854l1.275-1.276L15.93 58.724 14.655 60a3.4 3.4 0 0 1-2.422 1.002Zm3.667-12.92c.004.004.005.01.01.014l.012.008 5.313 5.314-3.184 3.185L7.398 45.949l3.186-3.184 5.317 5.317ZM56.692 7.309l-.002-.002C51.972 2.6 45.707.005 39.046 0h-.02c-6.653 0-12.91 2.586-17.619 7.283-6.443 6.445-7.34 13.301-7.846 21.62-.246 3.957-.44 7.082-2.219 8.862L9.526 39.58l-.003.002-.002.003-7.64 7.64c-2.506 2.506-2.504 6.588.005 9.097l5.793 5.794A6.422 6.422 0 0 0 12.233 64a6.405 6.405 0 0 0 4.543-1.879l9.46-9.46c1.8-1.801 5.072-1.981 8.868-2.192 8.292-.504 15.148-1.402 21.591-7.845 4.712-4.708 7.308-10.976 7.308-17.648-.002-6.669-2.599-12.944-7.31-17.667Z" fill="currentColor"/></svg>
